X:1
T:Title
L:1/8
M:4/4
K:F
V:1 treble nm="Grand Piano"
V:1
 z4[Q:1/4=100] z F F2 | F4 AGGF | G2 F2- FFFF | F4 AGG^F | ^F2 G2- GGGG | G4 B>B AG | %6
 A>G G2- GGGF | E2 DC AGGF |[M:2/4] F4 | z c cc |[M:4/4] c2 A2 AGGF | F4 z ccc | c2 A2 A2 GF | %13
 F2 B2- BBBA | B>A G2- GB/B/ BA | B>A G2- GBBA | B2 BA BABc | c4 z4 |] %18

